dist/img/picture/brands/severstal.svg

<svg width="116" height="39" viewBox="0 0 116 39" fill="none" xmlns="http://www.w3.org/2000/svg">
<path d="M33.2988 38.5508H30.6221L25.124 25.4709H28.9638L32.0587 33.7982H32.1132L35.1526 25.4709H38.7723L33.2988 38.5508Z" fill="#005DA3"/>
<path d="M59.1703 28.8517C58.5068 28.4671 57.8737 28.384 57.5134 28.384C56.7401 28.384 56.0223 28.6584 55.1101 29.4013V38.4698H51.3785V25.4709H54.5293L54.9437 26.8177C56.1339 25.7743 57.1526 25.1694 58.5351 25.1694C59.1703 25.1694 59.9456 25.3617 60.5234 25.7743L59.1703 28.8517Z" fill="#005DA3"/>
<path d="M64.661 38.7441C62.4227 38.7441 60.7374 38.2212 59.4928 37.4523L60.6549 34.7596C61.7591 35.5275 63.0602 35.9684 64.3024 35.9684C65.5729 35.9684 66.3746 35.5567 66.3746 34.7867C66.3746 32.7257 60.3225 33.5509 60.3225 29.1539C60.3225 26.7626 62.2566 25.1694 65.433 25.1694C67.176 25.1694 68.391 25.4167 69.4671 25.8293V28.9066C68.2804 28.4379 67.0099 28.0264 65.6013 28.0264C64.523 28.0264 63.9419 28.3276 63.9419 28.9606C63.9419 30.7462 70.1024 30.0872 70.1024 34.6223C70.1024 37.6174 67.4507 38.7441 64.661 38.7441Z" fill="#005DA3"/>
<path d="M75.9146 38.7441C73.4819 38.7441 72.57 37.3702 72.57 35.6108V28.7272H70.1664V25.8121H72.57V22.4486L76.301 21.3481V25.8121H80.3896L79.6533 28.7272H76.301V34.211C76.301 35.1702 76.6866 35.6377 77.5444 35.6377C78.3438 35.6377 79.1735 35.2823 79.6708 34.978L80.6385 37.2881C79.1474 38.3596 77.2113 38.7441 75.9146 38.7441Z" fill="#005DA3"/>
<path d="M88.4342 32.5886L86.8053 32.6428C85.2025 32.6988 84.4281 33.2487 84.4281 34.2377C84.4281 35.2252 85.1459 35.8582 86.4189 35.8582C87.4123 35.8582 88.0758 35.5275 88.4342 35.2531V32.5886ZM89.3464 38.4698L88.7656 37.342C87.91 38.1122 86.7511 38.7441 85.0634 38.7441C82.5767 38.7441 80.7014 37.0959 80.7014 34.5099C80.7014 31.7634 82.9373 30.3344 86.2506 30.2242L88.4625 30.1433C88.4625 30.0872 88.4625 29.978 88.4625 29.9221C88.4625 28.55 87.3581 27.9723 86.0606 27.9723C84.7336 27.9723 83.5987 28.3566 82.7167 28.8516L81.5809 26.5984C83.3781 25.4416 85.0917 25.1694 86.8598 25.1694C90.3422 25.1694 92.2764 26.5704 92.2764 30.0049V38.486L89.3464 38.4698Z" fill="#005DA3"/>
<path d="M97.6769 38.486V17.599L93.9205 18.7289V38.486H97.6769Z" fill="#005DA3"/>
<path d="M6.12603 38.7441C3.49746 38.7441 1.6204 37.8919 0.0375519 36.9285L1.69848 33.8306C2.9583 34.6787 4.74846 35.6366 5.90966 35.6366C7.10609 35.6366 8.66703 35.2469 8.66703 33.8675C8.66703 31.4771 4.35521 31.0495 2.14437 28.55C1.45639 27.7532 0.985179 26.7356 0.985179 25.3337C0.985179 22.5869 3.16773 20.1664 7.17384 20.1664C9.10856 20.1664 10.709 20.6623 11.7615 21.2671L11.7061 24.7354C10.1586 23.9113 8.68873 23.1887 7.19554 23.1887C5.84202 23.1887 4.94939 23.7869 4.94939 24.8303C4.94939 27.9635 12.7821 27.6957 12.7821 33.3857C12.7821 36.6834 9.85333 38.7441 6.12603 38.7441Z" fill="#005DA3"/>
<path d="M44.0424 27.8957C42.5557 27.8957 41.702 29.263 41.702 30.4426H46.4084C46.3248 29.2089 45.6376 27.8957 44.0424 27.8957ZM41.7845 32.987C41.867 34.7379 43.5177 35.7782 45.2509 35.7782C46.5171 35.7782 47.4824 35.5328 48.9452 34.8481L49.7989 37.2025C47.9777 38.3238 46.1879 38.7084 44.6458 38.7084C39.9699 38.7084 38.0404 35.4216 38.0404 32.029C38.0404 28.3612 40.2436 25.1845 44.1508 25.1845C47.7291 25.1845 50.2068 27.8403 50.2068 31.8646C50.2068 32.1133 50.2068 32.4936 50.2068 32.987H41.7845Z" fill="#005DA3"/>
<path d="M19.6789 27.8957C18.1923 27.8957 17.341 29.263 17.341 30.4426H22.0475C21.965 29.2089 21.2742 27.8957 19.6789 27.8957ZM17.4213 32.987C17.505 34.7379 19.1567 35.7782 20.891 35.7782C22.1572 35.7782 23.1192 35.5328 24.5842 34.8481L25.4379 37.2025C23.6145 38.3238 21.8249 38.7084 20.2838 38.7084C15.6058 38.7084 13.6803 35.4216 13.6803 32.029C13.6803 28.3612 15.8826 25.1845 19.7878 25.1845C23.3658 25.1845 25.844 27.8403 25.844 31.8646C25.844 32.1133 25.844 32.4936 25.844 32.987H17.4213Z" fill="#005DA3"/>
<path d="M113.359 14.2562C113.599 14.1806 113.831 14.0555 114.057 13.8954C114.405 13.0055 114.726 12.0139 115.014 10.9122H115.013C115.393 9.45218 115.623 8.13431 115.736 6.95049C115.849 5.74935 115.842 4.6866 115.745 3.74897C115.641 2.76829 115.382 1.7681 114.793 1.19366C114.206 0.61895 113.199 0.377099 112.209 0.292871C111.998 0.277162 111.78 0.265787 111.556 0.258745H110.507C110.03 0.273099 109.527 0.307221 108.999 0.364097C109.253 0.478659 109.479 0.618951 109.665 0.785243C110.254 1.32312 110.53 2.23691 110.649 3.13337C110.736 3.7858 110.773 4.50297 110.747 5.28703C110.706 6.55508 110.502 8.00025 110.075 9.63987C109.746 10.9057 109.357 12.0031 108.932 12.9579C109.592 13.362 110.224 13.6838 110.823 13.9301C111.665 14.2758 112.6 14.496 113.359 14.2562Z" fill="#006FB3"/>
<path d="M99.4316 11.5408C99.3774 11.7848 99.3709 12.0506 99.397 12.3273C99.9974 13.068 100.697 13.8372 101.51 14.6341C102.597 15.6949 103.636 16.5503 104.616 17.2371C105.602 17.9307 106.528 18.4535 107.385 18.8444C108.287 19.2591 109.291 19.525 110.085 19.3067C110.879 19.0864 111.594 18.3366 112.162 17.5267C112.704 16.7555 113.229 15.8287 113.714 14.7248C113.484 14.8891 113.246 15.0187 113.002 15.0943C112.241 15.3342 111.307 15.1139 110.466 14.7681C109.854 14.5174 109.212 14.1913 108.539 13.7766C107.459 13.107 106.303 12.2083 105.087 11.0224V11.0202C104.151 10.1043 103.391 9.22296 102.772 8.37823C102.091 8.74359 101.497 9.12546 100.983 9.51898C100.262 10.072 99.6032 10.7651 99.4316 11.5408Z" fill="#E3E3E3"/>
<path d="M108.751 0.882486C108.575 0.722694 108.358 0.588634 108.119 0.478676C107.164 0.621134 106.134 0.837257 105.019 1.14384C103.563 1.54576 102.302 2.0059 101.215 2.50044C100.122 2.99959 99.2059 3.53286 98.4412 4.07967C97.6268 4.66061 96.8752 5.39105 96.6669 6.19245C96.4605 6.99384 96.7609 7.99403 97.1881 8.89455C97.5895 9.74145 98.133 10.6509 98.8453 11.6143C98.817 11.3312 98.8246 11.0612 98.8802 10.8129C99.0517 10.0396 99.711 9.34386 100.431 8.79082C100.954 8.39134 101.558 8.00242 102.255 7.63084C103.378 7.03257 104.742 6.48603 106.384 6.03238C107.646 5.68463 108.792 5.47095 109.835 5.36045C109.859 4.58505 109.822 3.87438 109.735 3.23061C109.616 2.33415 109.341 1.41846 108.751 0.882486Z" fill="#DE1E25"/>
</svg>

<svg width="116" height="39" viewBox="0 0 116 39" fill="none" xmlns="http://www.w3.org/2000/svg"><path d="M33.299 38.55h-2.677l-5.498-13.08h3.84l3.095 8.328h.054l3.04-8.327h3.62l-5.474 13.08zm25.871-9.698a3.388 3.388 0 00-1.657-.468c-.773 0-1.49.274-2.403 1.017v9.069h-3.73v-13h3.15l.415 1.348c1.19-1.044 2.209-1.649 3.591-1.649.635 0 1.41.193 1.988.605l-1.353 3.078zm5.491 9.892c-2.238 0-3.924-.523-5.168-1.292l1.162-2.692c1.104.768 2.405 1.208 3.647 1.208 1.27 0 2.073-.411 2.073-1.181 0-2.061-6.053-1.236-6.053-5.633 0-2.391 1.935-3.985 5.111-3.985 1.743 0 2.958.248 4.034.66v3.078c-1.187-.47-2.457-.88-3.866-.88-1.078 0-1.66.3-1.66.934 0 1.785 6.161 1.126 6.161 5.661 0 2.995-2.651 4.122-5.441 4.122zm11.254 0c-2.433 0-3.345-1.374-3.345-3.133v-6.884h-2.404v-2.915h2.404V22.45l3.731-1.1v4.463h4.089l-.737 2.915h-3.352v5.484c0 .96.386 1.427 1.243 1.427.8 0 1.63-.356 2.127-.66l.967 2.31c-1.49 1.072-3.427 1.456-4.723 1.456zm12.519-6.155l-1.629.054c-1.603.056-2.377.606-2.377 1.595 0 .987.718 1.62 1.99 1.62.994 0 1.658-.33 2.016-.605V32.59zm.912 5.88l-.58-1.127c-.856.77-2.015 1.402-3.703 1.402-2.486 0-4.362-1.648-4.362-4.234 0-2.747 2.236-4.176 5.55-4.286l2.212-.08v-.222c0-1.372-1.105-1.95-2.402-1.95a6.815 6.815 0 00-3.344.88l-1.136-2.254c1.797-1.156 3.51-1.429 5.279-1.429 3.482 0 5.416 1.401 5.416 4.836v8.481l-2.93-.016zm8.331.017V17.599l-3.757 1.13v19.757h3.757zm-91.551.258c-2.629 0-4.506-.852-6.088-1.816l1.66-3.097c1.26.848 3.05 1.806 4.212 1.806 1.196 0 2.757-.39 2.757-1.77 0-2.39-4.312-2.817-6.523-5.317-.688-.797-1.159-1.814-1.159-3.216 0-2.747 2.183-5.168 6.189-5.168 1.935 0 3.535.496 4.587 1.101l-.055 3.468c-1.547-.824-3.017-1.546-4.51-1.546-1.354 0-2.247.598-2.247 1.641 0 3.134 7.833 2.866 7.833 8.556 0 3.297-2.929 5.358-6.656 5.358zm37.916-10.848c-1.486 0-2.34 1.367-2.34 2.547h4.706c-.083-1.234-.77-2.547-2.366-2.547zm-2.258 5.091c.083 1.75 1.734 2.791 3.467 2.791 1.266 0 2.231-.245 3.694-.93l.854 2.355c-1.821 1.12-3.611 1.505-5.153 1.505-4.676 0-6.606-3.286-6.606-6.679 0-3.668 2.204-6.845 6.11-6.845 3.58 0 6.057 2.656 6.057 6.68v1.123h-8.422zm-22.105-5.091c-1.487 0-2.338 1.367-2.338 2.547h4.706c-.082-1.234-.773-2.547-2.368-2.547zm-2.258 5.091c.084 1.75 1.736 2.791 3.47 2.791 1.266 0 2.228-.245 3.693-.93l.854 2.355c-1.823 1.12-3.613 1.505-5.154 1.505-4.678 0-6.604-3.286-6.604-6.679 0-3.668 2.203-6.845 6.108-6.845 3.578 0 6.056 2.656 6.056 6.68v1.123h-8.423z" fill="#005DA3"/><path d="M113.359 14.256c.24-.075.472-.2.698-.36.348-.89.669-1.882.957-2.984h-.001c.38-1.46.61-2.778.723-3.962a16.3 16.3 0 00.009-3.201c-.104-.98-.363-1.98-.952-2.555-.587-.575-1.594-.817-2.584-.901a15.269 15.269 0 00-.653-.034h-1.049c-.477.014-.98.048-1.508.105.254.115.48.255.666.421.589.538.865 1.452.984 2.348.087.653.124 1.37.098 2.154-.041 1.268-.245 2.713-.672 4.353a21.343 21.343 0 01-1.143 3.318c.66.404 1.292.726 1.891.972.842.346 1.777.566 2.536.326z" fill="#006FB3"/><path d="M99.432 11.54c-.055.245-.061.51-.035.787.6.741 1.3 1.51 2.113 2.307a25.072 25.072 0 003.106 2.603 17.313 17.313 0 002.769 1.607c.902.415 1.906.681 2.7.463.794-.22 1.509-.97 2.077-1.78a16.18 16.18 0 001.552-2.802c-.23.164-.468.294-.712.37-.761.24-1.695.019-2.536-.327a13.271 13.271 0 01-1.927-.991c-1.08-.67-2.236-1.569-3.452-2.755v-.002a21.445 21.445 0 01-2.315-2.642c-.681.366-1.275.747-1.789 1.141-.721.553-1.38 1.246-1.551 2.022z" fill="#E3E3E3"/><path d="M108.751.882a2.482 2.482 0 00-.632-.403c-.955.142-1.985.358-3.1.665a25.696 25.696 0 00-3.804 1.356c-1.093.5-2.01 1.033-2.774 1.58-.814.58-1.566 1.311-1.774 2.112-.207.802.094 1.802.521 2.703a16.48 16.48 0 001.657 2.72 2.527 2.527 0 01.035-.802c.172-.773.831-1.47 1.551-2.022.523-.4 1.127-.789 1.824-1.16 1.123-.598 2.487-1.145 4.129-1.599a21.54 21.54 0 013.451-.672 12.943 12.943 0 00-.1-2.13c-.119-.896-.394-1.812-.984-2.348z" fill="#DE1E25"/></svg>
